Sources/FrostedUI/Resources/Icons.xcassets/fileLinesSize20.imageset/file-lines-size-20.svg

<svg
  width="20"
  height="20"
  viewBox="0 0 20 20"
  fill="none"
  xmlns="http://www.w3.org/2000/svg"
  data-fui-icon="true"
>
  <path
    d="M11.1131 2.77983L11.6435 2.2495L11.6435 2.24949L11.1131 2.77983ZM15.5535 7.22018L15.0231 7.75051L15.0232 7.75052L15.5535 7.22018ZM6.86715 13.3125C6.45293 13.3125 6.11715 13.6483 6.11715 14.0625C6.11715 14.4767 6.45293 14.8125 6.86715 14.8125V13.3125ZM13.1328 14.8125C13.547 14.8125 13.8828 14.4767 13.8828 14.0625C13.8828 13.6483 13.547 13.3125 13.1328 13.3125V14.8125ZM6.86715 9.88803C6.45293 9.88803 6.11715 10.2238 6.11715 10.638C6.11715 11.0522 6.45293 11.388 6.86715 11.388V9.88803ZM10.5781 11.388C10.9923 11.388 11.3281 11.0522 11.3281 10.638C11.3281 10.2238 10.9923 9.88803 10.5781 9.88803V11.388ZM9.87498 2.70834V6.04167H11.375V2.70834H9.87498ZM9.87498 6.04167C9.87498 7.37635 10.9569 8.45834 12.2916 8.45834V6.95834C11.7854 6.95834 11.375 6.54794 11.375 6.04167H9.87498ZM12.2916 8.45834H15.625V6.95834H12.2916V8.45834ZM5.62498 3.04167H9.93465V1.54167H5.62498V3.04167ZM9.93465 3.04167C10.1777 3.04167 10.4109 3.13824 10.5828 3.31017L11.6435 2.24949C11.1902 1.79629 10.5756 1.54167 9.93465 1.54167V3.04167ZM10.5828 3.31016L15.0231 7.75051L16.0838 6.68985L11.6435 2.2495L10.5828 3.31016ZM15.0232 7.75052C15.1951 7.92243 15.2916 8.15557 15.2916 8.39867H16.7916C16.7916 7.75775 16.537 7.14306 16.0838 6.68984L15.0232 7.75052ZM15.2916 8.39867V16.0417H16.7916V8.39867H15.2916ZM15.2916 16.0417C15.2916 16.548 14.8813 16.9583 14.375 16.9583V18.4583C15.7097 18.4583 16.7916 17.3764 16.7916 16.0417H15.2916ZM14.375 16.9583H5.62498V18.4583H14.375V16.9583ZM5.62498 16.9583C5.11871 16.9583 4.70831 16.548 4.70831 16.0417H3.20831C3.20831 17.3764 4.2903 18.4583 5.62498 18.4583V16.9583ZM4.70831 16.0417V3.95834H3.20831V16.0417H4.70831ZM4.70831 3.95834C4.70831 3.45208 5.11872 3.04167 5.62498 3.04167V1.54167C4.29029 1.54167 3.20831 2.62365 3.20831 3.95834H4.70831ZM6.86715 14.8125H13.1328V13.3125H6.86715V14.8125ZM6.86715 11.388H10.5781V9.88803H6.86715V11.388Z"
    fill="currentColor"
  />
</svg>

<svg xmlns="http://www.w3.org/2000/svg" width="20" height="20" fill="none" data-fui-icon="true" viewBox="0 0 20 20"><path fill="currentColor" d="m11.113 2.78.53-.53zm4.44 4.44-.53.53zm-8.686 6.093a.75.75 0 0 0 0 1.5zm6.266 1.5a.75.75 0 0 0 0-1.5zM6.867 9.888a.75.75 0 1 0 0 1.5zm3.711 1.5a.75.75 0 0 0 0-1.5zm-.703-8.68v3.334h1.5V2.708zm0 3.334a2.417 2.417 0 0 0 2.417 2.416v-1.5a.917.917 0 0 1-.917-.916zm2.417 2.416h3.333v-1.5h-3.333zM5.625 3.042h4.31v-1.5h-4.31zm4.31 0c.243 0 .476.096.648.268l1.06-1.06a2.42 2.42 0 0 0-1.708-.708zm.648.268 4.44 4.44 1.06-1.06-4.44-4.44zm4.44 4.44a.92.92 0 0 1 .269.649h1.5c0-.641-.255-1.256-.708-1.71zm.269.649v7.643h1.5V8.399zm0 7.643c0 .506-.41.916-.917.916v1.5a2.417 2.417 0 0 0 2.417-2.416zm-.917.916h-8.75v1.5h8.75zm-8.75 0a.917.917 0 0 1-.917-.916h-1.5a2.417 2.417 0 0 0 2.417 2.416zm-.917-.916V3.958h-1.5v12.084zm0-12.084c0-.506.41-.916.917-.916v-1.5a2.417 2.417 0 0 0-2.417 2.416zm2.16 10.855h6.265v-1.5H6.867zm0-3.425h3.71v-1.5h-3.71z"/></svg>
